app/images/icons/member-icon.svg

<?xml version="1.0" encoding="UTF-8" standalone="no"?>
<svg width="76px" height="76px" viewBox="0 0 76 76" version="1.1" xmlns="http://www.w3.org/2000/svg" xmlns:xlink="http://www.w3.org/1999/xlink" xmlns:sketch="http://www.bohemiancoding.com/sketch/ns">
    <!-- Generator: Sketch 3.1 (8751) - http://www.bohemiancoding.com/sketch -->
    <title>member-icon</title>
    <desc>Created with Sketch.</desc>
    <defs></defs>
    <g id="Page-1" stroke="none" stroke-width="1" fill="none" fill-rule="evenodd" sketch:type="MSPage">
        <g id="member-icon" sketch:type="MSLayerGroup" fill="#1B1A19">
            <path d="M73.4679333,73.4666667 L2.53333333,73.4666667 L2.53333333,67.1320667 C2.53333333,62.2047333 5.605,57.6194 9.9256,55.9980667 L29.0852,50.1840667 C32.3418,52.4134 35.8112,53.6420667 38,53.6420667 C40.1900667,53.6420667 43.6632667,52.4134 46.9186,50.1840667 L65.9946,55.9727333 C70.3899333,57.6194 73.4679333,62.2047333 73.4679333,67.1320667 L73.4679333,73.4666667 L73.4679333,73.4666667 Z M23.2952667,36.4027333 C23.2952667,35.7060667 22.7290667,35.1360667 22.0286,35.1360667 C20.1881333,35.1360667 19.7017333,32.8307333 19.7017333,31.6033333 C19.7017333,30.3860667 20.1881333,28.0807333 22.0286,28.0807333 C22.6328,28.0807333 23.1534,27.6627333 23.2712,27.0674 L24.6670667,20.0880667 C34.2,19.8854 36.6801333,16.834 38,14.7047333 C39.3198667,16.834 41.8012667,19.8854 51.3392667,20.0880667 L52.7326,27.0674 C52.8466,27.6627333 53.3659333,28.0807333 53.9739333,28.0807333 C55.8106,28.0807333 56.2919333,30.3860667 56.2919333,31.6033333 C56.2919333,32.8307333 55.8106,35.1360667 53.9739333,35.1360667 C53.2772667,35.1360667 52.7072667,35.7060667 52.7072667,36.4027333 C52.7072667,41.192 49.6292667,45.0920667 46.1459333,47.6760667 C46.0952667,47.7014 46.0572667,47.7533333 46.0066,47.7774 C43.0932667,49.9054 39.9139333,51.11 38,51.11 C36.0949333,51.11 32.9358667,49.9193333 30.0301333,47.8027333 C29.9718667,47.7647333 29.9212,47.7014 29.8553333,47.6760667 C26.3682,45.0920667 23.2952667,41.192 23.2952667,36.4027333 L23.2952667,36.4027333 Z M21.7461333,7.97873333 C25.0179333,4.37 30.4874,2.53206667 38,2.53206667 C45.4872667,2.53206667 50.9466,4.35606667 54.2272667,7.9534 C57.9259333,12.0067333 57.5079333,17.0607333 57.5079333,17.0607333 L56.2032667,26.1693333 C55.8486,25.9527333 55.4686,25.7766667 55.0379333,25.6740667 L53.6192667,18.5807333 C53.4926,17.9854 52.9732667,17.5674 52.3779333,17.5674 C42.6562667,17.5674 40.9931333,14.7807333 39.8924,12.9440667 C39.5871333,12.4374 39.2996,11.9560667 38.8955333,11.552 C38.4205333,11.0694 37.5794667,11.0694 37.1044667,11.552 C36.7016667,11.9560667 36.4128667,12.4374 36.1088667,12.9440667 C35.0081333,14.7807333 33.345,17.5674 23.6271333,17.5674 C23.0229333,17.5674 22.5023333,17.9854 22.3845333,18.5807333 L20.9658667,25.6740667 C20.5352,25.7766667 20.1539333,25.9527333 19.7942,26.1693333 L18.4984,17.1114 C18.4933333,17.0607333 18.0424,12.0700667 21.7461333,7.97873333 L21.7461333,7.97873333 Z M66.8052667,53.5660667 L49.3506,48.2714 C52.3906,45.5480667 54.8352667,41.8874 55.1899333,37.5047333 C57.5839333,36.8346667 58.8252667,34.2114 58.8252667,31.6033333 C58.8252667,30.7027333 58.6732667,29.792 58.3692667,28.9547333 L60.0286,17.3647333 C60.0539333,17.1114 60.5859333,11.1960667 56.1272667,6.2814 C52.3652667,2.11406667 46.2599333,0 38,0 C29.7413333,0 23.6398,2.11406667 19.8676667,6.2814 C15.4178667,11.1960667 15.9524,17.1114 15.9840667,17.4166667 L17.6332667,28.9547333 C17.3330667,29.792 17.1684,30.7027333 17.1684,31.6033333 C17.1684,34.2114 18.4135333,36.8346667 20.8075333,37.5047333 C21.1622,41.8874 23.6081333,45.5480667 26.6481333,48.2714 L9.1124,53.5926667 C3.7468,55.6054 0,61.1660667 0,67.1320667 L0,76 L76.0012667,76 L76.0012667,67.1320667 C76.0012667,61.1660667 72.2519333,55.6054 66.8052667,53.5660667 L66.8052667,53.5660667 Z" id="Fill-1747" sketch:type="MSShapeGroup"></path>
            <path d="M29.1333333,29.4652894 C29.1333333,29.3272227 29.1485333,29.2512227 29.1422,29.2258894 C29.3790667,29.1232894 30.1264,29.1372227 30.628,29.1372227 L31.4931333,29.1372227 C32.0213333,29.1372227 32.813,29.1232894 32.9548667,29.1866227 C32.9561333,29.1866227 32.9890667,29.2626227 32.9890667,29.4652894 C32.9890667,30.1758894 33.5565333,30.7319561 34.2557333,30.7319561 C34.9549333,30.7319561 35.5224,30.1758894 35.5224,29.4652894 C35.5224,28.6039561 35.2703333,27.9199561 34.7712667,27.4272227 C33.9213333,26.5899561 32.6774667,26.5899561 31.4728667,26.6026227 L30.6482667,26.6026227 C29.4436667,26.5899561 28.1998,26.5899561 27.3511333,27.4272227 C26.8520667,27.9199561 26.6,28.6039561 26.6,29.4652894 C26.6,30.1758894 27.1674667,30.7319561 27.8666667,30.7319561 C28.5658667,30.7319561 29.1333333,30.1758894 29.1333333,29.4652894" id="Fill-1748" sketch:type="MSShapeGroup"></path>
            <path d="M41.8,30.7319561 C42.4992,30.7319561 43.0666667,30.1758894 43.0666667,29.4652894 C43.0666667,29.3272227 43.0818667,29.2512227 43.0755333,29.2258894 C43.3124,29.1232894 44.0660667,29.1372227 44.5600667,29.1372227 L45.4214,29.1372227 C45.9534,29.1372227 46.7514,29.1232894 46.8907333,29.1866227 C46.8907333,29.1866227 46.9160667,29.2626227 46.9160667,29.4652894 C46.9160667,30.1758894 47.4860667,30.7319561 48.1827333,30.7319561 C48.8920667,30.7319561 49.4494,30.1758894 49.4494,29.4652894 C49.4494,28.6039561 49.2087333,27.9199561 48.7020667,27.4272227 C47.8534,26.5899561 46.6120667,26.5899561 45.4087333,26.6026227 L44.5854,26.6026227 C43.3808,26.5899561 42.1344,26.5899561 41.2844667,27.4272227 C40.7854,27.9199561 40.5333333,28.6039561 40.5333333,29.4652894 C40.5333333,30.1758894 41.0995333,30.7319561 41.8,30.7319561" id="Fill-1749" sketch:type="MSShapeGroup"></path>
        </g>
    </g>
</svg>

<svg width="76" height="76" viewBox="0 0 76 76" xmlns="http://www.w3.org/2000/svg">
    <desc>
        Created with Sketch.
    </desc>
    <g fill="#1B1A19">
        <path d="M73.468 73.467H2.533v-6.335c0-4.927 3.072-9.513 7.393-11.134l19.16-5.814c3.256 2.23 6.725 3.458 8.914 3.458 2.19 0 5.663-1.23 8.92-3.458l19.075 5.79c4.395 1.645 7.473 6.23 7.473 11.158v6.335zM23.295 36.403c0-.697-.566-1.267-1.266-1.267-1.842 0-2.328-2.305-2.328-3.533 0-1.217.486-3.522 2.327-3.522.603 0 1.123-.417 1.24-1.013l1.397-6.98C34.2 19.886 36.68 16.835 38 14.706c1.32 2.13 3.8 5.18 13.34 5.383l1.393 6.98c.114.595.633 1.013 1.24 1.013 1.838 0 2.32 2.306 2.32 3.523 0 1.228-.482 3.533-2.32 3.533-.696 0-1.266.57-1.266 1.267 0 4.79-3.078 8.69-6.56 11.273-.052.025-.09.077-.14.1-2.914 2.13-6.093 3.334-8.007 3.334-1.905 0-5.064-1.19-7.97-3.307-.058-.038-.11-.102-.175-.127-3.487-2.584-6.56-6.484-6.56-11.273zM21.745 7.98C25.02 4.37 30.488 2.53 38 2.53c7.487 0 12.947 1.824 16.227 5.42 3.7 4.055 3.28 9.11 3.28 9.11l-1.304 9.107c-.354-.217-.734-.393-1.165-.496l-1.42-7.093c-.125-.595-.645-1.013-1.24-1.013-9.722 0-11.385-2.786-12.486-4.623-.305-.507-.592-.988-.996-1.392-.475-.483-1.317-.483-1.792 0-.402.404-.69.885-.995 1.392-1.102 1.837-2.765 4.623-12.483 4.623-.604 0-1.125.418-1.242 1.014l-1.42 7.094c-.43.103-.81.28-1.17.495l-1.297-9.06c-.005-.05-.456-5.04 3.248-9.13zm45.06 45.586L49.35 48.27c3.04-2.722 5.485-6.383 5.84-10.765 2.394-.67 3.635-3.294 3.635-5.902 0-.9-.152-1.81-.456-2.648l1.66-11.59c.024-.254.556-6.17-3.903-11.084C52.365 2.115 46.26 0 38 0c-8.26 0-14.36 2.114-18.132 6.28-4.45 4.916-3.916 10.83-3.884 11.137l1.65 11.538c-.3.837-.466 1.748-.466 2.648 0 2.608 1.246 5.232 3.64 5.902.354 4.382 2.8 8.043 5.84 10.766L9.112 53.594C3.747 55.605 0 61.166 0 67.133V76h76v-8.868c0-5.966-3.748-11.527-9.195-13.566z"/>
        <path d="M29.133 29.465c0-.138.016-.214.01-.24.236-.102.983-.088 1.485-.088h.865c.528 0 1.32-.014 1.462.05 0 0 .034.076.034.278 0 .71.567 1.267 1.266 1.267.7 0 1.266-.556 1.266-1.267 0-.86-.252-1.545-.75-2.038-.85-.837-2.095-.837-3.3-.824h-.824c-1.204-.013-2.448-.013-3.297.824-.498.493-.75 1.177-.75 2.038 0 .71.567 1.267 1.267 1.267s1.266-.556 1.266-1.267"/>
        <path d="M41.8 30.732c.7 0 1.267-.556 1.267-1.267 0-.138.015-.214.01-.24.235-.102.99-.088 1.483-.088h.86c.533 0 1.33-.014 1.47.05 0 0 .026.076.026.278 0 .71.57 1.267 1.267 1.267.71 0 1.266-.556 1.266-1.267 0-.86-.24-1.545-.748-2.038-.85-.837-2.09-.837-3.293-.824h-.825c-1.204-.013-2.45-.013-3.3.824-.5.493-.752 1.177-.752 2.038 0 .71.567 1.267 1.267 1.267"/>
    </g>
</svg>
